;FLAVOR:UltiGCode
;TIME:2891
;MATERIAL:3093
;MATERIAL2:0

;Layer count: 198
;LAYER:0
M107
G0 F9000 X107.299 Y76.201 Z0.300
;TYPE:SKIRT
G1 F1200 X119.118 Y76.201 E1.41828
G1 X122.700 Y76.191 E1.84812
G1 X122.699 Y84.690 E2.86800
G1 X124.700 Y84.674 E3.10813
G1 X124.700 Y105.600 E5.61925
G1 X122.700 Y105.600 E5.85925
G1 X122.700 Y148.799 E11.04313
G1 X107.300 Y148.799 E12.89113
G1 X107.300 Y105.600 E18.07501
G1 X105.300 Y105.600 E18.31501
G1 X105.300 Y84.727 E20.81977
G1 X107.300 Y84.711 E21.05978
G1 X107.299 Y76.201 E22.08098
G10
G0 F9000 X111.099 Y80.001
;TYPE:WALL-INNER
G11
G1 F1200 X118.900 Y80.001 E23.01710
G1 X118.899 Y87.550 E23.92298
G1 X118.902 Y88.501 E24.03710
G1 X120.900 Y88.501 E24.27686
G1 X120.900 Y89.300 E24.37274
G1 X118.900 Y89.301 E24.61274
G1 X118.900 Y94.501 E25.23674
G1 X120.900 Y94.501 E25.47674
G1 X120.900 Y95.301 E25.57274
G1 X118.900 Y95.301 E25.81274
G1 X118.900 Y101.000 E26.49662
G1 X120.900 Y101.000 E26.73662
G1 X120.900 Y101.800 E26.83262
G1 X118.900 Y101.800 E27.07262
G1 X118.900 Y144.999 E32.25650
G1 X111.100 Y144.999 E33.19250
G1 X111.100 Y101.800 E38.37638
G1 X109.100 Y101.800 E38.61638
G1 X109.100 Y101.000 E38.71238
G1 X111.100 Y101.000 E38.95238
G1 X111.100 Y95.301 E39.63626
G1 X109.100 Y95.301 E39.87626
G1 X109.100 Y94.501 E39.97226
G1 X111.100 Y94.501 E40.21226
G1 X111.100 Y89.301 E40.83626
G1 X109.100 Y89.301 E41.07626
G1 X109.100 Y88.500 E41.17238
G1 X111.100 Y88.501 E41.41238
G1 X111.099 Y80.001 E42.43238
G0 F9000 X113.792 Y82.195
G1 F1200 X113.523 Y82.548 E42.48564
G1 X113.353 Y82.958 E42.53890
G1 X113.294 Y83.400 E42.59241
G1 X113.353 Y83.841 E42.64580
G1 X113.523 Y84.252 E42.69917
G1 X113.795 Y84.607 E42.75284
G1 X114.163 Y84.883 E42.80804
G1 X114.558 Y85.048 E42.85941
G1 X115.000 Y85.105 E42.91289
G1 X115.441 Y85.046 E42.96628
G1 X115.852 Y84.876 E43.01965
G1 X116.204 Y84.605 E43.07296
G1 X116.476 Y84.253 E43.12634
G1 X116.647 Y83.841 E43.17987
G1 X116.704 Y83.400 E43.23323
G1 X116.647 Y82.959 E43.28659
G1 X116.476 Y82.547 E43.34012
G1 X116.205 Y82.194 E43.39352
G1 X115.852 Y81.923 E43.44693
G1 X115.440 Y81.752 E43.50046
G1 X114.995 Y81.694 E43.55431
G1 X114.537 Y81.760 E43.60983
G1 X114.131 Y81.934 E43.66284
G1 X113.792 Y82.195 E43.71418
G0 F9000 X113.295 Y83.400
G0 X115.000 Y112.945
G1 F1200 X114.559 Y113.002 E43.76754
G1 X114.147 Y113.173 E43.82107
G1 X113.794 Y113.444 E43.87447
G1 X113.523 Y113.797 E43.92788
G1 X113.352 Y114.209 E43.98141
G1 X113.295 Y114.650 E44.03477
G1 X113.352 Y115.090 E44.08801
G1 X113.523 Y115.503 E44.14165
G1 X113.795 Y115.855 E44.19503
G1 X114.147 Y116.126 E44.24834
G1 X114.558 Y116.296 E44.30171
G1 X115.000 Y116.355 E44.35522
G1 X115.441 Y116.296 E44.40861
G1 X115.852 Y116.126 E44.46198
G1 X116.209 Y115.853 E44.51591
G1 X116.476 Y115.502 E44.56884
G1 X116.646 Y115.091 E44.62221
G1 X116.705 Y114.650 E44.67560
G1 X116.646 Y114.208 E44.72911
G1 X116.476 Y113.798 E44.78237
G1 X116.207 Y113.445 E44.83563
G1 X115.852 Y113.173 E44.88930
G1 X115.440 Y113.002 E44.94283
G1 X115.000 Y112.945 E44.99607
G0 F9000 X115.000 Y132.294
G1 F1200 X114.559 Y132.351 E45.04943
G1 X114.147 Y132.522 E45.10296
G1 X113.794 Y132.793 E45.15636
G1 X113.523 Y133.146 E45.20976
G1 X113.352 Y133.558 E45.26329
G1 X113.295 Y133.999 E45.31665
G1 X113.352 Y134.439 E45.36989
G1 X113.523 Y134.852 E45.42353
G1 X113.795 Y135.204 E45.47692
G1 X114.147 Y135.475 E45.53022
G1 X114.558 Y135.645 E45.58360
G1 X115.000 Y135.704 E45.63711
G1 X115.441 Y135.645 E45.69050
G1 X115.852 Y135.475 E45.74387
G1 X116.209 Y135.202 E45.79780
G1 X116.476 Y134.851 E45.85072
G1 X116.646 Y134.440 E45.90409
G1 X116.705 Y133.999 E45.95749
G1 X116.646 Y133.557 E46.01100
G1 X116.476 Y133.147 E46.06426
G1 X116.207 Y132.794 E46.11752
G1 X115.852 Y132.522 E46.17118
G1 X115.440 Y132.351 E46.22471
G1 X115.000 Y132.294 E46.27795
G0 F9000 X115.000 Y132.697
;TYPE:WALL-OUTER
G1 F1200 X114.663 Y132.741 E46.31874
G1 X114.349 Y132.871 E46.35952
G1 X114.079 Y133.078 E46.40034
G1 X113.872 Y133.348 E46.44117
G1 X113.742 Y133.662 E46.48195
G1 X113.698 Y133.999 E46.52274
G1 X113.742 Y134.335 E46.56340
G1 X113.872 Y134.650 E46.60429
G1 X114.080 Y134.919 E46.64510
G1 X114.349 Y135.126 E46.68583
G1 X114.663 Y135.256 E46.72661
G1 X115.000 Y135.301 E46.76741
G1 X115.336 Y135.256 E46.80809
G1 X115.651 Y135.126 E46.84898
G1 X115.922 Y134.918 E46.88998
G1 X116.127 Y134.650 E46.93047
G1 X116.257 Y134.335 E46.97136
G1 X116.302 Y133.999 E47.01204
G1 X116.257 Y133.662 E47.05284
G1 X116.127 Y133.348 E47.09362
G1 X115.921 Y133.079 E47.13428
G1 X115.651 Y132.871 E47.17518
G1 X115.336 Y132.741 E47.21607
G1 X115.000 Y132.697 E47.25673
G0 F9000 X115.038 Y132.401
G0 X116.205 Y132.795
G0 X116.704 Y133.999
G0 X116.207 Y135.200
G0 X119.000 Y145.189
G0 X119.300 Y145.399
G1 F1200 X110.700 Y145.399 E48.28873
G1 X110.700 Y102.200 E53.47261
G1 X108.700 Y102.200 E53.71261
G1 X108.700 Y100.600 E53.90461
G1 X110.700 Y100.600 E54.14461
G1 X110.700 Y95.701 E54.73249
G1 X108.700 Y95.701 E54.97249
G1 X108.700 Y94.101 E55.16449
G1 X110.700 Y94.101 E55.40449
G1 X110.700 Y89.701 E55.93249
G1 X108.700 Y89.701 E56.17249
G1 X108.700 Y88.100 E56.36461
G1 X110.700 Y88.101 E56.60461
G1 X110.699 Y79.601 E57.62461
G1 X119.300 Y79.600 E58.65673
G1 X119.300 Y88.101 E59.67685
G1 X121.300 Y88.101 E59.91685
G1 X121.300 Y89.700 E60.10873
G1 X119.300 Y89.701 E60.34873
G1 X119.300 Y94.101 E60.87673
G1 X121.300 Y94.101 E61.11673
G1 X121.300 Y95.701 E61.30873
G1 X119.300 Y95.701 E61.54873
G1 X119.300 Y100.600 E62.13661
G1 X121.300 Y100.600 E62.37661
G1 X121.300 Y102.200 E62.56861
G1 X119.300 Y102.200 E62.80861
G1 X119.300 Y145.399 E67.99249
G0 F9000 X119.000 Y145.189
G0 X115.376 Y116.205
G0 X115.336 Y115.907
G1 F1200 X115.651 Y115.777 E68.03339
G1 X115.922 Y115.569 E68.07438
G1 X116.127 Y115.301 E68.11487
G1 X116.257 Y114.986 E68.15576
G1 X116.302 Y114.650 E68.19644
G1 X116.257 Y114.313 E68.23724
G1 X116.127 Y113.999 E68.27802
G1 X115.921 Y113.730 E68.31868
G1 X115.651 Y113.522 E68.35958
G1 X115.336 Y113.392 E68.40047
G1 X115.000 Y113.348 E68.44114
G1 X114.663 Y113.392 E68.48192
G1 X114.349 Y113.522 E68.52270
G1 X114.079 Y113.729 E68.56353
G1 X113.872 Y113.999 E68.60435
G1 X113.742 Y114.313 E68.64514
G1 X113.698 Y114.650 E68.68592
G1 X113.742 Y114.986 E68.72658
G1 X113.872 Y115.301 E68.76748
G1 X114.080 Y115.570 E68.80828
G1 X114.349 Y115.777 E68.84901
G1 X114.663 Y115.907 E68.88979
G1 X115.000 Y115.952 E68.93059
G1 X115.336 Y115.907 E68.97127
G0 F9000 X115.376 Y116.205
G0 X116.474 Y115.502
G0 X116.645 Y114.209
G0 X115.852 Y113.175
G0 X114.961 Y84.998
G0 X114.999 Y84.702
G1 F1200 X115.336 Y84.657 E69.01207
G1 X115.650 Y84.527 E69.05285
G1 X115.919 Y84.320 E69.09358
G1 X116.127 Y84.051 E69.13439
G1 X116.257 Y83.737 E69.17517
G1 X116.301 Y83.400 E69.21595
G1 X116.257 Y83.063 E69.25674
G1 X116.127 Y82.749 E69.29752
G1 X115.920 Y82.479 E69.33834
G1 X115.650 Y82.272 E69.37917
G1 X115.336 Y82.142 E69.41995
G1 X114.998 Y82.098 E69.46085
G1 X114.646 Y82.149 E69.50354
G1 X114.335 Y82.282 E69.54413
G1 X114.078 Y82.480 E69.58306
G1 X113.872 Y82.749 E69.62371
G1 X113.742 Y83.063 E69.66450
G1 X113.697 Y83.400 E69.70529
G1 X113.742 Y83.736 E69.74597
G1 X113.872 Y84.051 E69.78687
G1 X114.079 Y84.320 E69.82760
G1 X114.363 Y84.533 E69.87020
G1 X114.663 Y84.658 E69.90920
G1 X114.999 Y84.702 E69.94986
G0 F9000 X114.935 Y85.237
;TYPE:SKIN
G1 F900 X118.858 Y89.160 E70.61562
G0 F9000 X118.759 Y89.626
G1 F900 X114.171 Y85.038 E71.39423
G0 F9000 X113.360 Y84.227
G1 F900 X111.238 Y82.105 E71.75434
G0 F9000 X111.238 Y81.540
G1 F900 X113.159 Y83.461 E72.08035
G0 F9000 X113.212 Y82.948
G1 F900 X111.238 Y80.974 E72.41535
G0 F9000 X111.238 Y80.408
G1 F900 X113.372 Y82.542 E72.77750
G0 F9000 X113.605 Y82.209
G1 F900 X111.536 Y80.141 E73.12853
G0 F9000 X112.102 Y80.141
G1 F900 X113.897 Y81.936 E73.43316
G0 F9000 X114.255 Y81.728
G1 F900 X112.668 Y80.141 E73.70248
G0 F9000 X113.233 Y80.141
G1 F900 X114.688 Y81.595 E73.94932
G0 F9000 X115.242 Y81.584
G1 F900 X113.799 Y80.141 E74.19420
G0 F9000 X114.365 Y80.141
G1 F900 X118.760 Y84.536 E74.94006
G0 F9000 X118.760 Y83.971
G1 F900 X114.931 Y80.141 E75.58994
G0 F9000 X115.496 Y80.141
G1 F900 X118.760 Y83.405 E76.14386
G0 F9000 X118.759 Y82.838
G1 F900 X116.062 Y80.141 E76.60156
G0 F9000 X116.628 Y80.141
G1 F900 X118.759 Y82.273 E76.96329
G0 F9000 X118.759 Y81.707
G1 F900 X117.193 Y80.141 E77.22905
G0 F9000 X117.759 Y80.141
G1 F900 X118.759 Y81.141 E77.39875
G0 F9000 X118.759 Y80.576
G1 F900 X118.325 Y80.141 E77.47249
G0 F9000 X116.812 Y83.154
G1 F900 X118.760 Y85.102 E77.80308
G0 F9000 X118.760 Y85.668
G1 F900 X116.803 Y83.710 E78.13527
G0 F9000 X116.671 Y84.144
G1 F900 X118.761 Y86.234 E78.48996
G0 F9000 X118.761 Y86.800
G1 F900 X116.461 Y84.499 E78.88037
G0 F9000 X116.188 Y84.792
G1 F900 X118.761 Y87.365 E79.31702
G0 F9000 X118.761 Y87.931
G1 F900 X115.855 Y85.026 E79.81010
G0 F9000 X115.450 Y85.186
G1 F900 X118.761 Y88.497 E80.37199
G0 F9000 X118.905 Y88.641
G1 F900 X119.447 Y88.900 E80.45994
G1 X119.989 Y89.159 E80.53202
G0 F9000 X118.959 Y89.360
G0 X118.759 Y90.192
G1 F900 X111.238 Y82.671 E81.80838
G0 F9000 X111.238 Y83.237
G1 F900 X118.759 Y90.757 E83.08465
G0 F9000 X118.759 Y91.323
G1 F900 X111.238 Y83.802 E84.36101
G0 F9000 X111.238 Y84.368
G1 F900 X118.759 Y91.889 E85.63736
G0 F9000 X118.759 Y92.454
G1 F900 X111.238 Y84.934 E86.91363
G0 F9000 X111.238 Y85.499
G1 F900 X118.759 Y93.020 E88.18999
G0 F9000 X118.759 Y93.586
G1 F900 X111.238 Y86.065 E89.46634
G0 F9000 X111.238 Y86.631
G1 F900 X118.759 Y94.151 E90.74262
G0 F9000 X119.248 Y94.641
G1 F900 X119.790 Y94.900 E90.83056
G1 X120.546 Y95.090 E90.91849
G1 X120.379 Y94.641 E90.97597
G0 F9000 X118.959 Y94.442
G0 X118.959 Y89.360
G0 X120.555 Y89.159
G1 F900 X120.319 Y88.641 E91.06375
G1 X120.758 Y88.797 E91.11966
G0 F9000 X118.959 Y89.360
G0 X118.959 Y94.442
G0 X119.201 Y95.160
G1 F900 X111.238 Y87.196 E92.47111
G0 F9000 X111.238 Y87.762
G1 F900 X118.759 Y95.283 E93.74746
G0 F9000 X118.759 Y95.849
G1 F900 X111.238 Y88.328 E95.02382
G0 F9000 X110.986 Y88.641
G1 F900 X118.759 Y96.414 E96.34294
G0 F9000 X118.759 Y96.980
G1 F900 X111.239 Y89.460 E97.61913
G0 F9000 X110.939 Y89.160
G1 F900 X110.396 Y88.900 E97.70708
G1 X109.830 Y88.900 E97.79521
G1 X109.288 Y88.640 E97.86735
G0 F9000 X111.041 Y89.360
G0 X111.239 Y90.026
G1 F900 X118.759 Y97.546 E99.14353
G0 F9000 X118.759 Y98.111
G1 F900 X111.239 Y90.591 E100.41972
G0 F9000 X111.239 Y91.157
G1 F900 X118.759 Y98.677 E101.69591
G0 F9000 X118.759 Y99.243
G1 F900 X111.239 Y91.723 E102.97209
G0 F9000 X111.239 Y92.288
G1 F900 X118.759 Y99.808 E104.24828
G0 F9000 X118.759 Y100.374
G1 F900 X111.239 Y92.854 E105.52446
G0 F9000 X111.239 Y93.420
G1 F900 X118.759 Y100.940 E106.80065
G0 F9000 X118.958 Y101.139
G1 F900 X119.501 Y101.399 E106.88897
G1 X120.067 Y101.399 E106.97727
G1 X120.684 Y101.451 E107.06550
G1 X120.655 Y101.139 E107.10310
G0 F9000 X118.913 Y101.660
G1 F900 X111.239 Y93.985 E108.40551
G0 F9000 X111.239 Y94.551
G1 F900 X118.759 Y102.072 E109.68178
G0 F9000 X118.759 Y102.637
G1 F900 X110.762 Y94.640 E111.03891
G0 F9000 X110.717 Y95.161
G1 F900 X110.173 Y94.900 E111.12725
G1 X109.435 Y94.727 E111.21548
G1 X109.585 Y95.161 E111.27058
G0 F9000 X111.041 Y95.360
G0 X111.239 Y95.682
G1 F900 X118.759 Y103.203 E112.54685
G0 F9000 X118.759 Y103.769
G1 F900 X111.239 Y96.248 E113.82313
G0 F9000 X111.239 Y96.814
G1 F900 X118.759 Y104.335 E115.09940
G0 F9000 X118.759 Y104.900
G1 F900 X111.239 Y97.379 E116.37567
G0 F9000 X111.239 Y97.945
G1 F900 X118.759 Y105.466 E117.65194
G0 F9000 X118.759 Y106.032
G1 F900 X111.239 Y98.511 E118.92821
G0 F9000 X111.239 Y99.076
G1 F900 X118.759 Y106.597 E120.20448
G0 F9000 X118.759 Y107.163
G1 F900 X111.239 Y99.642 E121.48075
G0 F9000 X111.239 Y100.208
G1 F900 X118.759 Y107.729 E122.75702
G0 F9000 X118.759 Y108.294
G1 F900 X111.239 Y100.774 E124.03321
G0 F9000 X111.039 Y101.140
G1 F900 X118.759 Y108.860 E125.34334
G0 F9000 X118.759 Y109.426
G1 F900 X111.239 Y101.906 E126.61952
G0 F9000 X110.993 Y101.660
G1 F900 X110.451 Y101.400 E126.70753
G1 X109.885 Y101.400 E126.79566
G1 X109.290 Y101.371 E126.88394
G1 X109.296 Y101.660 E126.91863
G0 F9000 X111.041 Y101.859
G0 X111.239 Y102.471
G1 F900 X118.759 Y109.991 E128.19481
G0 F9000 X118.759 Y110.557
G1 F900 X111.239 Y103.037 E129.47100
G0 F9000 X111.239 Y103.603
G1 F900 X118.759 Y111.123 E130.74719
G0 F9000 X118.759 Y111.688
G1 F900 X111.239 Y104.168 E132.02337
G0 F9000 X111.239 Y104.734
G1 F900 X118.759 Y112.254 E133.29956
G0 F9000 X118.759 Y112.820
G1 F900 X111.239 Y105.300 E134.57575
G0 F9000 X111.239 Y105.865
G1 F900 X118.759 Y113.385 E135.85193
G0 F9000 X118.759 Y113.951
G1 F900 X111.239 Y106.431 E137.12812
G0 F9000 X111.239 Y106.997
G1 F900 X118.759 Y114.517 E138.40430
G0 F9000 X118.759 Y115.083
G1 F900 X111.239 Y107.562 E139.68058
G0 F9000 X111.239 Y108.128
G1 F900 X118.759 Y115.648 E140.95676
G0 F9000 X118.759 Y116.214
G1 F900 X116.792 Y114.246 E141.29066
G0 F9000 X116.820 Y114.840
G1 F900 X118.759 Y116.780 E141.61980
G0 F9000 X118.759 Y117.345
G1 F900 X116.711 Y115.297 E141.96736
G0 F9000 X116.520 Y115.672
G1 F900 X118.759 Y117.911 E142.34733
G0 F9000 X118.759 Y118.477
G1 F900 X116.268 Y115.985 E142.77015
G0 F9000 X115.947 Y116.229
G1 F900 X118.759 Y119.042 E143.24745
G0 F9000 X118.759 Y119.608
G1 F900 X115.553 Y116.401 E143.79161
G0 F9000 X115.073 Y116.487
G1 F900 X118.759 Y120.174 E144.41723
G0 F9000 X118.759 Y120.739
G1 F900 X114.403 Y116.383 E145.15647
G0 F9000 X113.264 Y115.244
G1 F900 X111.239 Y113.219 E145.50012
G0 F9000 X111.239 Y112.654
G1 F900 X113.163 Y114.578 E145.82663
G0 F9000 X113.246 Y114.095
G1 F900 X111.239 Y112.088 E146.16723
G0 F9000 X111.239 Y111.522
G1 F900 X113.419 Y113.702 E146.53719
G0 F9000 X113.665 Y113.382
G1 F900 X111.239 Y110.957 E146.94881
G0 F9000 X111.239 Y110.391
G1 F900 X113.975 Y113.127 E147.41313
G0 F9000 X114.349 Y112.935
G1 F900 X111.239 Y109.825 E147.94091
G0 F9000 X111.239 Y109.260
G1 F900 X114.808 Y112.828 E148.54651
G0 F9000 X115.400 Y112.854
G1 F900 X111.239 Y108.694 E149.25257
G0 F9000 X111.239 Y113.785
G1 F900 X118.759 Y121.305 E150.52875
G0 F9000 X118.759 Y121.871
G1 F900 X111.239 Y114.351 E151.80494
G0 F9000 X111.239 Y114.916
G1 F900 X118.759 Y122.436 E153.08113
G0 F9000 X118.759 Y123.002
G1 F900 X111.239 Y115.482 E154.35731
G0 F9000 X111.239 Y116.048
G1 F900 X118.759 Y123.568 E155.63350
G0 F9000 X118.759 Y124.134
G1 F900 X111.239 Y116.613 E156.90977
G0 F9000 X111.239 Y117.179
G1 F900 X118.759 Y124.699 E158.18596
G0 F9000 X118.759 Y125.265
G1 F900 X111.239 Y117.745 E159.46214
G0 F9000 X111.239 Y118.310
G1 F900 X118.759 Y125.831 E160.73841
G0 F9000 X118.759 Y126.396
G1 F900 X111.239 Y118.876 E162.01460
G0 F9000 X111.239 Y119.442
G1 F900 X118.759 Y126.962 E163.29079
G0 F9000 X118.759 Y127.528
G1 F900 X111.239 Y120.008 E164.56697
G0 F9000 X111.239 Y120.573
G1 F900 X118.759 Y128.093 E165.84316
G0 F9000 X118.759 Y128.659
G1 F900 X111.239 Y121.139 E167.11934
G0 F9000 X111.239 Y121.705
G1 F900 X118.759 Y129.225 E168.39553
G0 F9000 X118.759 Y129.790
G1 F900 X111.239 Y122.270 E169.67172
G0 F9000 X111.239 Y122.836
G1 F900 X118.759 Y130.356 E170.94790
G0 F9000 X118.759 Y130.922
G1 F900 X111.239 Y123.402 E172.22409
G0 F9000 X111.239 Y123.967
G1 F900 X118.759 Y131.487 E173.50028
G0 F9000 X118.759 Y132.053
G1 F900 X111.239 Y124.533 E174.77646
G0 F9000 X111.239 Y125.099
G1 F900 X118.759 Y132.619 E176.05265
G0 F9000 X118.759 Y133.184
G1 F900 X111.239 Y125.664 E177.32884
G0 F9000 X111.239 Y126.230
G1 F900 X118.759 Y133.750 E178.60502
G0 F9000 X118.759 Y134.316
G1 F900 X111.239 Y126.796 E179.88121
G0 F9000 X111.239 Y127.361
