;FLAVOR:UltiGCode
;TIME:2072
;MATERIAL:2058
;MATERIAL2:0

;Layer count: 138
;LAYER:0
M107
G0 F9000 X97.980 Y99.400 Z0.300
;TYPE:SKIRT
G1 F1200 X132.020 Y99.400 E4.08480
G1 X132.020 Y125.600 E7.22880
G1 X97.980 Y125.600 E11.31360
G1 X97.980 Y99.400 E14.45760
G0 F9000 X98.380 Y99.800
G1 F1200 X131.620 Y99.800 E18.44640
G1 X131.620 Y125.200 E21.49440
G1 X98.380 Y125.200 E25.48320
G1 X98.380 Y99.800 E28.53120
G10
G0 F9000 X102.180 Y103.600
;TYPE:WALL-INNER
G11
G1 F1200 X127.820 Y103.600 E31.60800
G1 X127.820 Y121.400 E33.74400
G1 X102.180 Y121.400 E36.82080
G1 X102.180 Y103.600 E38.95680
G0 F9000 X106.419 Y111.040
G1 F1200 X106.071 Y111.318 E39.01025
G1 X105.807 Y111.676 E39.06363
G1 X105.645 Y112.091 E39.11709
G1 X105.595 Y112.533 E39.17046
G1 X105.662 Y112.973 E39.22387
G1 X105.840 Y113.381 E39.27729
G1 X106.118 Y113.728 E39.33065
G1 X106.477 Y113.993 E39.38419
G1 X106.891 Y114.155 E39.43754
G1 X107.333 Y114.204 E39.49090
G1 X107.773 Y114.137 E39.54431
G1 X108.180 Y113.959 E39.59762
G1 X108.529 Y113.682 E39.65109
G1 X108.793 Y113.323 E39.70456
G1 X108.955 Y112.908 E39.75802
G1 X109.005 Y112.466 E39.81140
G1 X108.938 Y112.026 E39.86481
G1 X108.760 Y111.617 E39.91833
G1 X108.481 Y111.271 E39.97167
G1 X108.124 Y111.006 E40.02502
G1 X107.709 Y110.844 E40.07848
G1 X107.266 Y110.795 E40.13197
G1 X106.827 Y110.862 E40.18526
G1 X106.419 Y111.040 E40.23867
G0 F9000 X107.707 Y110.846
G0 X120.995 Y112.500
G1 F1200 X121.052 Y112.940 E40.29192
G1 X121.223 Y113.352 E40.34545
G1 X121.494 Y113.705 E40.39885
G1 X121.847 Y113.976 E40.45225
G1 X122.258 Y114.146 E40.50562
G1 X122.700 Y114.205 E40.55914
G1 X123.142 Y114.146 E40.61265
G1 X123.553 Y113.976 E40.66602
G1 X123.906 Y113.705 E40.71942
G1 X124.178 Y113.351 E40.77299
G1 X124.346 Y112.940 E40.82627
G1 X124.406 Y112.494 E40.88028
G1 X124.334 Y112.026 E40.93710
G1 X124.177 Y111.647 E40.98632
G1 X123.906 Y111.294 E41.03973
G1 X123.553 Y111.023 E41.09313
G1 X123.142 Y110.853 E41.14650
G1 X122.700 Y110.794 E41.20001
G1 X122.258 Y110.853 E41.25353
G1 X121.847 Y111.023 E41.30690
G1 X121.494 Y111.294 E41.36030
G1 X121.223 Y111.647 E41.41370
G1 X121.052 Y112.059 E41.46723
G1 X120.995 Y112.500 E41.52059
G0 F9000 X121.398 Y112.500
;TYPE:WALL-OUTER
G1 F1200 X121.442 Y112.836 E41.56126
G1 X121.572 Y113.150 E41.60204
G1 X121.779 Y113.420 E41.64287
G1 X122.049 Y113.627 E41.68369
G1 X122.363 Y113.757 E41.72447
G1 X122.700 Y113.802 E41.76527
G1 X123.037 Y113.757 E41.80607
G1 X123.351 Y113.627 E41.84685
G1 X123.621 Y113.420 E41.88768
G1 X123.828 Y113.150 E41.92851
G1 X123.957 Y112.836 E41.96924
G1 X124.002 Y112.498 E42.01016
G1 X123.946 Y112.135 E42.05423
G1 X123.828 Y111.849 E42.09136
G1 X123.621 Y111.579 E42.13219
G1 X123.351 Y111.372 E42.17301
G1 X123.037 Y111.242 E42.21380
G1 X122.700 Y111.197 E42.25459
G1 X122.363 Y111.242 E42.29539
G1 X122.049 Y111.372 E42.33618
G1 X121.779 Y111.579 E42.37700
G1 X121.572 Y111.849 E42.41783
G1 X121.442 Y112.163 E42.45861
G1 X121.398 Y112.500 E42.49939
G0 F9000 X121.102 Y112.462
G0 X121.496 Y113.703
G0 X127.920 Y121.590
G0 X128.220 Y121.800
G1 F1200 X101.780 Y121.800 E45.67219
G1 X101.780 Y103.200 E47.90419
G1 X128.220 Y103.200 E51.07699
G1 X128.220 Y121.800 E53.30899
G0 F9000 X127.920 Y121.590
G0 X108.718 Y113.238
G0 X108.440 Y113.128
G1 F1200 X108.564 Y112.811 E53.34984
G1 X108.602 Y112.474 E53.39054
G1 X108.551 Y112.138 E53.43132
G1 X108.415 Y111.826 E53.47216
G1 X108.202 Y111.562 E53.51287
G1 X107.929 Y111.359 E53.55369
G1 X107.612 Y111.236 E53.59449
G1 X107.274 Y111.198 E53.63531
G1 X106.939 Y111.249 E53.67597
G1 X106.627 Y111.385 E53.71681
G1 X106.362 Y111.597 E53.75754
G1 X106.160 Y111.871 E53.79839
G1 X106.036 Y112.188 E53.83923
G1 X105.998 Y112.525 E53.87993
G1 X106.049 Y112.861 E53.92071
G1 X106.185 Y113.172 E53.96144
G1 X106.397 Y113.437 E54.00217
G1 X106.672 Y113.640 E54.04319
G1 X106.988 Y113.763 E54.08388
G1 X107.325 Y113.801 E54.12457
G1 X107.661 Y113.750 E54.16535
G1 X107.972 Y113.614 E54.20609
G1 X108.238 Y113.402 E54.24690
G1 X108.440 Y113.128 E54.28775
G0 F9000 X108.981 Y113.224
;TYPE:SKIN
G1 F900 X117.016 Y121.259 E55.65134
G0 F9000 X116.451 Y121.259
G1 F900 X108.774 Y113.583 E56.95408
G0 F9000 X108.505 Y113.879
G1 F900 X115.885 Y121.259 E58.20651
G0 F9000 X115.319 Y121.259
G1 F900 X108.174 Y114.114 E59.41906
G0 F9000 X107.773 Y114.279
G1 F900 X114.753 Y121.258 E60.60352
G0 F9000 X114.187 Y121.258
G1 F900 X107.265 Y114.336 E61.77822
G0 F9000 X106.525 Y114.162
G1 F900 X113.622 Y121.258 E62.98254
G0 F9000 X113.056 Y121.258
G1 F900 X102.319 Y110.522 E64.80458
G0 F9000 X102.319 Y111.087
G1 F900 X112.490 Y121.258 E66.53066
G0 F9000 X111.925 Y121.258
G1 F900 X102.319 Y111.653 E68.16076
G0 F9000 X102.319 Y112.219
G1 F900 X111.359 Y121.258 E69.69482
G0 F9000 X110.793 Y121.258
G1 F900 X102.319 Y112.784 E71.13290
G0 F9000 X102.319 Y113.350
G1 F900 X110.228 Y121.258 E72.47502
G0 F9000 X109.662 Y121.258
G1 F900 X102.319 Y113.916 E73.72108
G0 F9000 X102.319 Y114.482
G1 F900 X109.096 Y121.258 E74.87110
G0 F9000 X108.530 Y121.258
G1 F900 X102.319 Y115.047 E75.92514
G0 F9000 X102.319 Y115.613
G1 F900 X107.965 Y121.258 E76.88321
G0 F9000 X107.399 Y121.258
G1 F900 X102.319 Y116.179 E77.74523
G0 F9000 X102.319 Y116.744
G1 F900 X106.833 Y121.258 E78.51128
G0 F9000 X106.268 Y121.258
G1 F900 X102.319 Y117.310 E79.18136
G0 F9000 X102.319 Y117.876
G1 F900 X105.702 Y121.258 E79.75539
G0 F9000 X105.136 Y121.258
G1 F900 X102.319 Y118.441 E80.23345
G0 F9000 X102.319 Y119.007
G1 F900 X104.571 Y121.258 E80.61555
G0 F9000 X104.005 Y121.258
G1 F900 X102.319 Y119.573 E80.90158
G0 F9000 X105.643 Y113.280
G1 F900 X102.319 Y109.956 E81.46569
G0 F9000 X102.319 Y109.390
G1 F900 X105.455 Y112.526 E81.99788
G0 F9000 X105.520 Y112.025
G1 F900 X102.319 Y108.825 E82.54103
G0 F9000 X102.319 Y108.259
G1 F900 X105.678 Y111.618 E83.11107
G0 F9000 X105.916 Y111.290
G1 F900 X102.319 Y107.693 E83.72150
G0 F9000 X102.319 Y107.128
G1 F900 X106.214 Y111.022 E84.38242
G0 F9000 X106.575 Y110.817
G1 F900 X102.319 Y106.562 E85.10460
G0 F9000 X102.319 Y105.996
G1 F900 X107.013 Y110.690 E85.90120
G0 F9000 X107.576 Y110.687
G1 F900 X102.319 Y105.431 E86.79325
G0 F9000 X102.319 Y104.865
G1 F900 X118.714 Y121.259 E89.57549
G0 F9000 X119.279 Y121.259
G1 F900 X102.319 Y104.299 E92.45370
G0 F9000 X102.325 Y103.739
G1 F900 X119.845 Y121.259 E95.42694
G0 F9000 X118.148 Y121.259
G1 F900 X109.109 Y112.220 E96.96091
G0 F9000 X109.108 Y112.785
G1 F900 X117.582 Y121.259 E98.39900
G0 F9000 X103.439 Y121.258
G1 F900 X102.319 Y120.138 E98.58907
G0 F9000 X102.319 Y120.704
G1 F900 X102.874 Y121.258 E98.68317
G0 F9000 X102.891 Y103.739
G1 F900 X120.411 Y121.259 E101.65641
G0 F9000 X120.976 Y121.259
G1 F900 X103.456 Y103.739 E104.62966
G0 F9000 X104.022 Y103.739
G1 F900 X121.542 Y121.259 E107.60290
G0 F9000 X122.108 Y121.259
G1 F900 X104.588 Y103.739 E110.57614
G0 F9000 X105.153 Y103.739
G1 F900 X122.673 Y121.259 E113.54938
G0 F9000 X123.239 Y121.259
G1 F900 X105.719 Y103.739 E116.52263
G0 F9000 X106.285 Y103.739
G1 F900 X123.805 Y121.259 E119.49587
G0 F9000 X124.370 Y121.259
G1 F900 X106.850 Y103.739 E122.46911
G0 F9000 X107.416 Y103.739
G1 F900 X124.936 Y121.259 E125.44235
G0 F9000 X125.502 Y121.259
G1 F900 X107.982 Y103.739 E128.41560
G0 F9000 X108.547 Y103.739
G1 F900 X126.067 Y121.259 E131.38884
G0 F9000 X126.633 Y121.259
G1 F900 X109.113 Y103.739 E134.36208
G0 F9000 X109.679 Y103.739
G1 F900 X127.199 Y121.259 E137.33532
G0 F9000 X127.679 Y121.174
G1 F900 X110.245 Y103.739 E140.29406
G0 F9000 X110.810 Y103.739
G1 F900 X127.679 Y120.608 E143.15682
G0 F9000 X127.679 Y120.042
G1 F900 X121.599 Y113.962 E144.18863
G0 F9000 X121.236 Y113.600
G1 F900 X111.376 Y103.739 E145.86201
G0 F9000 X111.942 Y103.739
G1 F900 X120.875 Y112.673 E147.37808
G0 F9000 X120.901 Y112.132
G1 F900 X112.507 Y103.739 E148.80250
G0 F9000 X113.073 Y103.739
G1 F900 X121.043 Y111.710 E150.15514
G0 F9000 X121.263 Y111.364
G1 F900 X113.639 Y103.739 E151.44906
G0 F9000 X114.204 Y103.739
G1 F900 X121.543 Y111.077 E152.69445
G0 F9000 X121.885 Y110.854
G1 F900 X114.770 Y103.739 E153.90190
G0 F9000 X115.336 Y103.739
G1 F900 X122.301 Y110.705 E155.08399
G0 F9000 X122.831 Y110.669
G1 F900 X115.901 Y103.739 E156.26005
G0 F9000 X116.467 Y103.739
G1 F900 X123.648 Y110.921 E157.47879
G0 F9000 X124.276 Y111.548
G1 F900 X127.679 Y114.951 E158.05630
G0 F9000 X127.679 Y115.517
G1 F900 X124.527 Y112.364 E158.59129
G0 F9000 X124.493 Y112.896
G1 F900 X127.679 Y116.082 E159.13198
G0 F9000 X127.679 Y116.648
G1 F900 X124.344 Y113.313 E159.69794
G0 F9000 X124.119 Y113.654
G1 F900 X127.679 Y117.214 E160.30210
G0 F9000 X127.679 Y117.779
G1 F900 X123.834 Y113.935 E160.95453
G0 F9000 X123.488 Y114.154
G1 F900 X127.679 Y118.345 E161.66577
G0 F9000 X127.679 Y118.911
G1 F900 X123.066 Y114.298 E162.44862
G0 F9000 X122.526 Y114.324
G1 F900 X127.679 Y119.477 E163.32311
G0 F9000 X127.679 Y114.385
G1 F900 X117.033 Y103.739 E165.12980
G0 F9000 X117.598 Y103.739
G1 F900 X127.679 Y113.820 E166.84060
G0 F9000 X127.679 Y113.254
G1 F900 X118.164 Y103.739 E168.45535
G0 F9000 X118.730 Y103.739
G1 F900 X127.679 Y112.688 E169.97404
G0 F9000 X127.679 Y112.123
G1 F900 X119.295 Y103.739 E171.39686
G0 F9000 X119.861 Y103.739
G1 F900 X127.679 Y111.557 E172.72361
G0 F9000 X127.679 Y110.991
G1 F900 X120.427 Y103.739 E173.95432
G0 F9000 X120.993 Y103.739
G1 F900 X127.679 Y110.426 E175.08906
G0 F9000 X127.679 Y109.860
G1 F900 X121.558 Y103.739 E176.12782
G0 F9000 X122.124 Y103.739
G1 F900 X127.679 Y109.294 E177.07054
G0 F9000 X127.679 Y108.728
G1 F900 X122.690 Y103.739 E177.91720
G0 F9000 X123.255 Y103.739
G1 F900 X127.679 Y108.163 E178.66798
G0 F9000 X127.679 Y107.597
G1 F900 X123.821 Y103.739 E179.32270
G0 F9000 X124.387 Y103.739
G1 F900 X127.679 Y107.031 E179.88137
G0 F9000 X127.679 Y106.466
G1 F900 X124.952 Y103.739 E180.34416
G0 F9000 X125.518 Y103.739
G1 F900 X127.679 Y105.900 E180.71089
G0 F9000 X127.679 Y105.334
G1 F900 X126.084 Y103.739 E180.98158
G0 F9000 X126.649 Y103.739
G1 F900 X127.679 Y104.769 E181.15637
G0 F9000 X127.679 Y104.203
G1 F900 X127.215 Y103.739 E181.23512
;LAYER:1
M106 S127
G0 F9000 X127.820 Y103.600 Z0.400
;TYPE:WALL-INNER
G1 F1800 X127.820 Y121.400 E181.94712
G1 X102.180 Y121.400 E182.97272
G1 X102.180 Y103.600 E183.68472
G1 X127.820 Y103.600 E184.71032
G0 F9000 X123.553 Y111.023
G1 F1800 X123.142 Y110.853 E184.72811
G1 X122.700 Y110.794 E184.74594
G1 X122.258 Y110.853 E184.76378
G1 X121.847 Y111.023 E184.78157
G1 X121.494 Y111.294 E184.79937
G1 X121.223 Y111.647 E184.81717
G1 X121.052 Y112.059 E184.83502
G1 X120.995 Y112.500 E184.85280
G1 X121.052 Y112.940 E184.87055
G1 X121.223 Y113.352 E184.88839
G1 X121.494 Y113.705 E184.90619
G1 X121.847 Y113.976 E184.92400
G1 X122.258 Y114.146 E184.94179
G1 X122.700 Y114.205 E184.95962
G1 X123.142 Y114.146 E184.97746
G1 X123.553 Y113.976 E184.99525
G1 X123.906 Y113.705 E185.01305
G1 X124.178 Y113.351 E185.03091
G1 X124.346 Y112.940 E185.04867
G1 X124.405 Y112.500 E185.06643
G1 X124.346 Y112.059 E185.08422
G1 X124.178 Y111.648 E185.10198
G1 X123.906 Y111.294 E185.11984
G1 X123.553 Y111.023 E185.13764
G0 F9000 X122.258 Y110.854
G0 X109.005 Y112.466
G1 F1800 X108.938 Y112.026 E185.15545
G1 X108.760 Y111.617 E185.17329
G1 X108.481 Y111.271 E185.19107
G1 X108.124 Y111.006 E185.20885
G1 X107.709 Y110.844 E185.22667
G1 X107.266 Y110.795 E185.24450
G1 X106.827 Y110.862 E185.26226
G1 X106.419 Y111.040 E185.28007
G1 X106.071 Y111.318 E185.29788
G1 X105.807 Y111.676 E185.31568
G1 X105.645 Y112.091 E185.33350
G1 X105.595 Y112.533 E185.35129
G1 X105.662 Y112.973 E185.36909
G1 X105.840 Y113.381 E185.38690
G1 X106.118 Y113.728 E185.40468
G1 X106.477 Y113.993 E185.42253
G1 X106.891 Y114.155 E185.44031
G1 X107.333 Y114.204 E185.45810
G1 X107.773 Y114.137 E185.47591
G1 X108.180 Y113.959 E185.49367
G1 X108.529 Y113.682 E185.51150
G1 X108.793 Y113.323 E185.52932
G1 X108.955 Y112.908 E185.54714
G1 X109.005 Y112.466 E185.56493
G0 F9000 X108.602 Y112.474
;TYPE:WALL-OUTER
G1 F1320 X108.551 Y112.138 E185.57853
G1 X108.415 Y111.826 E185.59214
G1 X108.202 Y111.562 E185.60571
G1 X107.929 Y111.359 E185.61932
G1 X107.612 Y111.236 E185.63292
G1 X107.274 Y111.198 E185.64653
G1 X106.939 Y111.249 E185.66008
G1 X106.627 Y111.385 E185.67369
G1 X106.362 Y111.597 E185.68727
G1 X106.160 Y111.871 E185.70088
G1 X106.036 Y112.188 E185.71450
G1 X105.998 Y112.525 E185.72807
G1 X106.049 Y112.861 E185.74166
G1 X106.185 Y113.172 E185.75524
G1 X106.397 Y113.437 E185.76881
G1 X106.672 Y113.640 E185.78248
G1 X106.988 Y113.763 E185.79605
G1 X107.325 Y113.801 E185.80961
G1 X107.661 Y113.750 E185.82321
G1 X107.972 Y113.614 E185.83678
G1 X108.238 Y113.402 E185.85039
G1 X108.440 Y113.128 E185.86401
G1 X108.564 Y112.811 E185.87762
G1 X108.602 Y112.474 E185.89119
G0 F9000 X108.899 Y112.506
G0 X108.479 Y111.272
G0 X102.080 Y103.410
G0 X101.780 Y103.200
G1 F1320 X128.220 Y103.200 E186.94879
G1 X128.220 Y121.800 E187.69279
G1 X101.780 Y121.800 E188.75039
G1 X101.780 Y103.200 E189.49439
G0 F9000 X102.080 Y103.410
G0 X121.297 Y111.734
G0 X121.572 Y111.849
G1 F1320 X121.442 Y112.163 E189.50798
G1 X121.398 Y112.500 E189.52158
G1 X121.442 Y112.836 E189.53513
G1 X121.572 Y113.150 E189.54873
G1 X121.779 Y113.420 E189.56233
G1 X122.049 Y113.627 E189.57594
G1 X122.363 Y113.757 E189.58954
G1 X122.700 Y113.802 E189.60314
G1 X123.037 Y113.757 E189.61674
G1 X123.351 Y113.627 E189.63033
G1 X123.621 Y113.420 E189.64394
G1 X123.828 Y113.150 E189.65755
G1 X123.957 Y112.836 E189.67113
G1 X124.002 Y112.500 E189.68469
G1 X123.957 Y112.163 E189.69829
G1 X123.828 Y111.849 E189.71186
G1 X123.621 Y111.579 E189.72547
G1 X123.351 Y111.372 E189.73908
G1 X123.037 Y111.242 E189.75268
G1 X122.700 Y111.197 E189.76628
G1 X122.363 Y111.242 E189.77987
G1 X122.049 Y111.372 E189.79347
G1 X121.779 Y111.579 E189.80708
G1 X121.572 Y111.849 E189.82069
G0 F9000 X121.024 Y111.754
;TYPE:SKIN
G1 F900 X111.519 Y121.259 E190.35837
G0 F9000 X110.954 Y121.259
G1 F900 X127.679 Y104.534 E191.30448
G0 F9000 X127.679 Y105.100
G1 F900 X121.951 Y110.827 E191.62848
G0 F9000 X122.692 Y110.653
G1 F900 X127.679 Y105.665 E191.91061
G0 F9000 X127.679 Y106.231
G1 F900 X123.189 Y110.721 E192.16460
G0 F9000 X123.589 Y110.887
G1 F900 X127.679 Y106.797 E192.39597
G0 F9000 X127.679 Y107.362
G1 F900 X123.916 Y111.126 E192.60886
G0 F9000 X124.182 Y111.425
G1 F900 X127.679 Y107.928 E192.80669
G0 F9000 X127.679 Y108.494
G1 F900 X124.385 Y111.787 E192.99299
G0 F9000 X124.510 Y112.228
G1 F900 X127.679 Y109.059 E193.17226
G0 F9000 X127.679 Y109.625
G1 F900 X124.506 Y112.798 E193.35175
G0 F9000 X123.904 Y113.703
G0 X122.998 Y114.306
G1 F900 X116.044 Y121.260 E193.74513
G0 F9000 X115.479 Y121.260
G1 F900 X122.428 Y114.310 E194.13825
G0 F9000 X121.987 Y114.185
G1 F900 X114.914 Y121.259 E194.53839
G0 F9000 X114.348 Y121.259
G1 F900 X121.625 Y113.982 E194.95004
G0 F9000 X121.325 Y113.716
G1 F900 X113.782 Y121.259 E195.37674
G0 F9000 X113.216 Y121.259
G1 F900 X121.085 Y113.390 E195.82187
G0 F9000 X120.919 Y112.991
G1 F900 X112.651 Y121.259 E196.28958
G0 F9000 X112.085 Y121.259
G1 F900 X120.855 Y112.490 E196.78566
G0 F9000 X121.848 Y111.025
G0 X123.142 Y110.854
G0 X124.176 Y111.650
G0 X127.679 Y112.454
G1 F900 X118.873 Y121.260 E197.28380
G0 F9000 X119.438 Y121.260
G1 F900 X127.679 Y113.019 E197.74998
G0 F9000 X127.679 Y113.585
G1 F900 X120.004 Y121.260 E198.18415
G0 F9000 X120.570 Y121.260
G1 F900 X127.679 Y114.151 E198.58629
G0 F9000 X127.679 Y114.716
G1 F900 X121.135 Y121.260 E198.95648
G0 F9000 X121.701 Y121.260
G1 F900 X127.679 Y115.282 E199.29464
G0 F9000 X127.679 Y115.848
G1 F900 X122.267 Y121.260 E199.60079
G0 F9000 X122.832 Y121.260
